X: 1822
T: Marry The Piper Girl   #2
R: march
%S: s:3 b:18(8+10)
B: O'Neill's 1850 #1822
Z: Bob Safranek, rjs@gsp.org
Z: Compacted via repeats and multiple endings [JC]
M: 6/8
L: 1/8
K: G
|: G2G G2B | ABA A2 [1,3 B | G2G G2B | d3 g3 :| [2,4 f \
|  g2e fed | e3 e3 :: gag fed | efe edB |
|  d2d d2e | g3  g2a |\
[1 b2g g2d | efe d2B | g2G G2B | d3 d3 :|\
[2 b2g a2f | g2f e2d | e2d e2f | g3 g3 |]
